**harm	**harte	**timestamp	**phrase	**leadinstrument	**kern
*M4/4	*M4/4	*	*	*	*
*A:	*A:	*	*	*	*A:
1r;	N	0	.	r	1r;
=1	=1	=1	=1	=1	=1
*>A2_intro	*>A2_intro	*>A2_intro	*>A2_intro	*>A2_intro	*>A2_intro
1I	A:maj	0.302	newline	guitar	1A 1cc# 1ee
=2	=2	=2	=2	=2	=2
1V7	E:7	4.598	.	guitar	1E 1g# 1b 1dd
=3	=3	=3	=3	=3	=3
1vi	F#:min	8.894	.	guitar	1F# 1a 1cc#
=4	=4	=4	=4	=4	=4
2I	A:maj	13.19	.	guitar	2A 2cc# 2ee
2V7	E:7	15.338	.	guitar	2E 2g# 2b 2dd
=5	=5	=5	=5	=5	=5
*>A_chorus	*>A_chorus	*>A_chorus	*>A_chorus	*>A_chorus	*>A_chorus
1I	A:maj	17.486	newline	voice	1A 1cc# 1ee
=6	=6	=6	=6	=6	=6
1V7	E:7	21.533	.	voice	1E 1g# 1b 1dd
=7	=7	=7	=7	=7	=7
1I	A:maj	25.579	.	voice	1A 1cc# 1ee
=8	=8	=8	=8	=8	=8
1IV	D:maj	29.626	.	voice	1D 1f# 1a
=9	=9	=9	=9	=9	=9
1I	A:maj	33.672	newline	voice	1A 1cc# 1ee
=10	=10	=10	=10	=10	=10
1V7	E:7	37.706	.	voice	1E 1g# 1b 1dd
=11	=11	=11	=11	=11	=11
1vi	F#:min	41.739	.	voice	1F# 1a 1cc#
=12	=12	=12	=12	=12	=12
2I	A:maj	45.772	.	voice	2A 2cc# 2ee
2V7	E:7	47.789	.	voice	2E 2g# 2b 2dd
=13	=13	=13	=13	=13	=13
*>B_chorus	*>B_chorus	*>B_chorus	*>B_chorus	*>B_chorus	*>B_chorus
1I	A:maj	49.806	newline	voice	1A 1cc# 1ee
=14	=14	=14	=14	=14	=14
1V7	E:7	53.882	.	voice	1E 1g# 1b 1dd
=15	=15	=15	=15	=15	=15
1I	A:maj	57.959	.	voice	1A 1cc# 1ee
=16	=16	=16	=16	=16	=16
1IV	D:maj	62.036	.	voice	1D 1f# 1a
=17	=17	=17	=17	=17	=17
1I	A:maj	66.113	newline	voice	1A 1cc# 1ee
=18	=18	=18	=18	=18	=18
1V7	E:7	70.192	.	voice	1E 1g# 1b 1dd
=19	=19	=19	=19	=19	=19
1vi	F#:min	74.271	.	voice	1F# 1a 1cc#
=20	=20	=20	=20	=20	=20
2I	A:maj	78.35	.	voice	2A 2cc# 2ee
2V7	E:7	80.39	.	voice	2E 2g# 2b 2dd
=21	=21	=21	=21	=21	=21
*>B_chorus	*>B_chorus	*>B_chorus	*>B_chorus	*>B_chorus	*>B_chorus
1I	A:maj	82.43	newline	voice	1A 1cc# 1ee
=22	=22	=22	=22	=22	=22
1V7	E:7	86.569	.	voice	1E 1g# 1b 1dd
=23	=23	=23	=23	=23	=23
1I	A:maj	90.709	.	voice	1A 1cc# 1ee
=24	=24	=24	=24	=24	=24
1IV	D:maj	94.849	.	voice	1D 1f# 1a
=25	=25	=25	=25	=25	=25
1I	A:maj	98.989	newline	voice	1A 1cc# 1ee
=26	=26	=26	=26	=26	=26
1V7	E:7	103.035	.	voice	1E 1g# 1b 1dd
=27	=27	=27	=27	=27	=27
1vi	F#:min	107.081	.	voice	1F# 1a 1cc#
=28	=28	=28	=28	=28	=28
2I	A:maj	111.126	.	voice	2A 2cc# 2ee
2V7	E:7	113.149	.	voice	2E 2g# 2b 2dd
=29	=29	=29	=29	=29	=29
*>B_chorus	*>B_chorus	*>B_chorus	*>B_chorus	*>B_chorus	*>B_chorus
1I	A:maj	115.172	newline	voice	1A 1cc# 1ee
=30	=30	=30	=30	=30	=30
1V7	E:7	119.251	.	voice	1E 1g# 1b 1dd
=31	=31	=31	=31	=31	=31
1I	A:maj	123.329	.	voice	1A 1cc# 1ee
=32	=32	=32	=32	=32	=32
1IV	D:maj	127.408	.	voice	1D 1f# 1a
=33	=33	=33	=33	=33	=33
1I	A:maj	131.486	newline	voice	1A 1cc# 1ee
=34	=34	=34	=34	=34	=34
1V7	E:7	135.52	.	voice	1E 1g# 1b 1dd
=35	=35	=35	=35	=35	=35
1vi	F#:min	139.553	.	voice	1F# 1a 1cc#
=36	=36	=36	=36	=36	=36
1I	A:maj	143.586	.	voice	1A 1cc# 1ee
1r;	N	150.14	.	r	1r;
1r;	N	153.078	.	r	1r;
*-	*-	*-	*-	*-	*-
!!!OTL: If You Need Me
!!!COC: Solomon Burke
!!!BillboardChartDate: 1963/04/20, 1963/06/29
!!!BillboardPeak: 37, 37
!!!BillboardWeeksOnChart: 11, 11
!!!SampleTargetRank: 93, 67
!!!SampleActualRank: 91, 69
!!!SampleID#: 160, 172
!!!RDF**harmony: **recip + pitch class of root + harmonic quality
!!!RDF**harte: Chris Harte's syntax, used by MIREX
!!!RDF**phrase: newline = linebreak in original McGill transcription
!!!RDF**timestamp: McGill audio timestamp in seconds
!!!RDF**leadinstrument: original McGill primary instrumentation annotation
!!!RDT: 2017/01/12/
!!!ENC: Nathaniel Condit-Schultz
!!!EST: Awating manual error checking and editing.
